src/assets/outline/Ranking1.svg

<?xml version="1.0" encoding="UTF-8"?>
<svg width="24" height="24" viewBox="0 0 24 24" xmlns="http://www.w3.org/2000/svg">
 <path d="m8.67 22.75h-6.67c-0.41 0-0.75-0.34-0.75-0.75v-6c0-1.52 1.23-2.75 2.75-2.75h4.67c0.41 0 0.75 0.34 0.75 0.75v8c0 0.41-0.34 0.75-0.75 0.75zm-5.92-1.5h5.17v-6.5h-3.92c-0.69 0-1.25 0.56-1.25 1.25v5.25z"/>
 <path d="m15.33 22.75h-6.67c-0.41 0-0.75-0.34-0.75-0.75v-10c0-1.52 1.23-2.75 2.75-2.75h2.67c1.52 0 2.75 1.23 2.75 2.75v10c0 0.41-0.33 0.75-0.75 0.75zm-5.91-1.5h5.17v-9.25c0-0.69-0.56-1.25-1.25-1.25h-2.67c-0.69005 0-1.25 0.56-1.25 1.25v9.25z"/>
 <path d="m22 22.75h-6.67c-0.41 0-0.75-0.34-0.75-0.75v-5c0-0.41 0.34-0.75 0.75-0.75h4.67c1.52 0 2.75 1.23 2.75 2.75v3c0 0.41-0.34 0.75-0.75 0.75zm-5.92-1.5h5.17v-2.25c0-0.69-0.56-1.25-1.25-1.25h-3.92v3.5z"/>
 <path d="m13.7 8.3502c-0.24 0-0.54-0.07002-0.88-0.27002l-0.82-0.48999-0.81 0.48001c-0.82 0.49-1.36 0.2-1.56 0.06s-0.63-0.58-0.42-1.5l0.19-0.83002-0.68-0.67999c-0.42-0.42-0.57-0.92001-0.42-1.38s0.56-0.78 1.14-0.88l0.87001-0.15 0.49-0.97998c0.54-1.07 1.85-1.07 2.38 0l0.49 0.97998 0.87 0.15c0.58 0.1 1 0.42 1.14 0.88 0.15 0.46-0.01 0.96001-0.42 1.38l-0.68 0.67999 0.19 0.83002c0.21 0.93-0.22 1.36-0.42 1.51-0.09 0.08-0.32 0.20999-0.65 0.20999zm-1.7-2.27c0.24 0 0.48 0.06002 0.68 0.18002l0.56 0.32999-0.12-0.54001c-0.1-0.42 0.05-0.92999 0.36-1.24l0.51-0.51001-0.63-0.10998c-0.4-0.07-0.79-0.36001-0.97-0.72001l-0.39-0.75-0.38 0.75c-0.18 0.36-0.57 0.65001-0.97 0.72001l-0.63 0.1 0.51 0.50998c0.31 0.31 0.45 0.82002 0.36 1.24l-0.12 0.53998 0.56-0.32999c0.19-0.12 0.43-0.17001 0.67-0.17001z"/>
</svg>

<svg width="24" height="24" viewBox="0 0 24 24"  xmlns="http://www.w3.org/2000/svg">
<path d="M8.67 22.75H2C1.59 22.75 1.25 22.41 1.25 22V16C1.25 14.48 2.48 13.25 4 13.25H8.67C9.08 13.25 9.42 13.59 9.42 14V22C9.42 22.41 9.08 22.75 8.67 22.75ZM2.75 21.25H7.92V14.75H4C3.31 14.75 2.75 15.31 2.75 16V21.25Z" />
<path d="M15.3302 22.75H8.66016C8.25016 22.75 7.91016 22.41 7.91016 22V12C7.91016 10.48 9.14016 9.25 10.6602 9.25H13.3302C14.8502 9.25 16.0802 10.48 16.0802 12V22C16.0802 22.41 15.7502 22.75 15.3302 22.75ZM9.42015 21.25H14.5902V12C14.5902 11.31 14.0302 10.75 13.3402 10.75H10.6702C9.98015 10.75 9.42015 11.31 9.42015 12V21.25Z" />
<path d="M22.0001 22.75H15.3301C14.9201 22.75 14.5801 22.41 14.5801 22V17C14.5801 16.59 14.9201 16.25 15.3301 16.25H20.0001C21.5201 16.25 22.7501 17.48 22.7501 19V22C22.7501 22.41 22.4101 22.75 22.0001 22.75ZM16.0801 21.25H21.2501V19C21.2501 18.31 20.6901 17.75 20.0001 17.75H16.0801V21.25Z" />
<path d="M13.6999 8.35023C13.4599 8.35023 13.1599 8.28021 12.8199 8.08021L11.9999 7.59022L11.1899 8.07023C10.3699 8.56023 9.82989 8.27023 9.62989 8.13023C9.42989 7.99023 8.99989 7.55023 9.20989 6.63023L9.39989 5.80021L8.71989 5.12022C8.29989 4.70022 8.14989 4.20021 8.29989 3.74021C8.44989 3.28021 8.85989 2.96021 9.43989 2.86021L10.3099 2.71021L10.7999 1.73023C11.3399 0.660234 12.6499 0.660234 13.1799 1.73023L13.6699 2.71021L14.5399 2.86021C15.1199 2.96021 15.5399 3.28021 15.6799 3.74021C15.8299 4.20021 15.6699 4.70022 15.2599 5.12022L14.5799 5.80021L14.7699 6.63023C14.9799 7.56023 14.5499 7.99024 14.3499 8.14024C14.2599 8.22024 14.0299 8.35023 13.6999 8.35023ZM11.9999 6.08021C12.2399 6.08021 12.4799 6.14023 12.6799 6.26023L13.2399 6.59022L13.1199 6.05021C13.0199 5.63021 13.1699 5.12022 13.4799 4.81022L13.9899 4.30021L13.3599 4.19023C12.9599 4.12023 12.5699 3.83022 12.3899 3.47022L11.9999 2.72022L11.6199 3.47022C11.4399 3.83022 11.0499 4.12023 10.6499 4.19023L10.0199 4.29023L10.5299 4.80021C10.8399 5.11021 10.9799 5.62023 10.8899 6.04023L10.7699 6.58021L11.3299 6.25022C11.5199 6.13022 11.7599 6.08021 11.9999 6.08021Z" />
</svg>
